assets/images/index/item-2.svg

<svg width="86" height="92" viewBox="0 0 86 92" fill="none" xmlns="http://www.w3.org/2000/svg">
<path d="M71.0381 78.3142C52.376 89.0893 33.103 89.0893 14.3854 78.3142C5.05432 72.9266 0.388794 67.428 0.388794 61.9849V66.3171C0.388794 71.8158 5.05432 77.2589 14.3854 82.6465C33.0474 93.4216 52.3205 93.4216 71.0381 82.6465C80.3692 77.2589 85.0347 71.7602 85.0347 66.3171V61.9849C85.0902 67.428 80.3692 72.9266 71.0381 78.3142Z" fill="white"/>
<path d="M42.7673 91.1998C33.2141 91.1998 23.6053 88.4782 14.2187 83.0351C4.7766 77.592 0 71.9267 0 66.2615V61.9292C0 61.6515 0.222168 61.4293 0.499877 61.4293C0.777587 61.4293 0.999754 61.6515 0.999754 61.9292C0.999754 67.2057 5.60973 72.5932 14.7741 77.8697C33.2141 88.5338 52.4871 88.5338 70.927 77.8697C80.0359 72.5932 84.7014 67.2612 84.7014 61.9292C84.7014 61.6515 84.9236 61.4293 85.2013 61.4293C85.479 61.4293 85.7012 61.6515 85.7012 61.9292V66.2615C85.7012 71.9267 80.9246 77.592 71.4269 83.0351C61.9292 88.4782 52.3205 91.1998 42.7673 91.1998ZM0.888671 66.317C0.944213 71.5935 5.55419 76.9255 14.6631 82.202C33.103 92.866 52.376 92.866 70.8159 82.202C79.9248 76.9255 84.5348 71.5935 84.5903 66.317C82.7574 70.4827 78.3141 74.6483 71.3158 78.7029C52.5982 89.5335 32.9364 89.5335 14.2187 78.7029C7.16491 74.6483 2.72155 70.5382 0.888671 66.317Z" fill="#0000BD"/>
<path d="M71.0381 45.5995C52.376 34.8244 33.103 34.8244 14.3854 45.5995C5.10986 50.9871 0.444336 56.4858 0.444336 61.9844C0.444336 67.4831 5.10986 72.9262 14.4409 78.3137C33.103 89.0889 52.376 89.0889 71.0937 78.3137C80.4247 72.9262 85.0902 67.4275 85.0902 61.9844C85.0902 56.4858 80.3692 50.9871 71.0381 45.5995Z" fill="white"/>
<path d="M42.7673 86.8673C33.2141 86.8673 23.6053 84.1458 14.2187 78.7027C4.7766 73.2596 0 67.5943 0 61.929C0 56.2637 4.7766 50.5985 14.2187 45.1554C32.9364 34.3247 52.5982 34.3247 71.3158 45.1554C80.7579 50.5985 85.5901 56.2637 85.5901 61.929C85.5901 67.5943 80.8135 73.2596 71.3158 78.7027C61.9292 84.1458 52.3205 86.8673 42.7673 86.8673ZM42.7673 37.9904C33.3807 37.9904 23.9386 40.712 14.7186 45.9885C5.55419 51.3205 0.888671 56.6525 0.888671 61.9846C0.888671 67.261 5.49865 72.6486 14.6631 77.9251C33.103 88.5891 52.376 88.5891 70.8159 77.9251C79.9248 72.6486 84.5903 67.3166 84.5903 61.9846C84.5903 56.7081 79.9804 51.3205 70.8159 46.044C61.596 40.712 52.1539 37.9904 42.7673 37.9904Z" fill="#0000BD"/>
<path d="M39.768 61.8181L34.2138 64.984L37.9907 55.2086L43.5448 52.0427L39.768 61.8181Z" fill="white"/>
<path d="M34.2139 65.484C34.1028 65.484 33.9917 65.4285 33.8806 65.3729C33.714 65.2618 33.6584 65.0397 33.7695 64.8175L37.5464 55.0421C37.6019 54.931 37.6575 54.8755 37.7685 54.8199L43.3227 51.5985C43.4894 51.4874 43.7115 51.543 43.8782 51.6541C44.0448 51.7651 44.1003 51.9873 43.9892 52.2095L40.2124 61.9849C40.1568 62.0959 40.1013 62.1515 39.9902 62.207L34.436 65.4285C34.3805 65.484 34.3249 65.484 34.2139 65.484ZM38.3795 55.542L35.1581 63.9288L39.3793 61.485L42.6007 53.1537L38.3795 55.542Z" fill="#0000BD"/>
<path d="M45.2667 63.0957L42.4896 68.15L41.7675 69.3719L47.3217 66.1505L48.0438 64.9286L50.8208 59.8743L45.2667 63.0957Z" fill="white"/>
<path d="M41.7675 69.8163C41.6565 69.8163 41.5454 69.7607 41.4343 69.7052C41.2677 69.5386 41.2677 69.3164 41.3787 69.1498L44.8779 62.8735C44.9334 62.818 44.989 62.7625 45.0445 62.7069L50.5987 59.4855C50.7653 59.3744 51.043 59.4299 51.1541 59.541C51.3208 59.7076 51.3208 59.9298 51.2097 60.0964L47.7105 66.3727C47.655 66.4282 47.5994 66.4838 47.5439 66.5393L41.9897 69.7607C41.9342 69.8163 41.8786 69.8163 41.7675 69.8163ZM45.6555 63.429L43.045 68.0389L46.9885 65.7617L49.599 61.1517L45.6555 63.429Z" fill="#0000BD"/>
<path d="M58.1524 67.872L52.5982 71.0379L44.1558 39.3235L49.71 36.1021L58.1524 67.872Z" fill="white"/>
<path d="M52.5982 71.5375C52.5426 71.5375 52.4871 71.5375 52.4316 71.4819C52.3205 71.4264 52.2094 71.3153 52.1538 71.1487L43.6559 39.4342C43.6004 39.2121 43.7115 38.9899 43.8781 38.8788L49.4323 35.6574C49.5434 35.6019 49.71 35.5463 49.8766 35.6574C49.9877 35.7129 50.0988 35.824 50.1543 35.9907L58.5967 67.7051C58.6522 67.9273 58.5412 68.1494 58.3745 68.2605L52.8203 71.4819C52.7648 71.5375 52.6537 71.5375 52.5982 71.5375ZM44.7112 39.5453L52.9314 70.3156L57.597 67.594L49.3767 36.8793L44.7112 39.5453Z" fill="#0000BD"/>
<path d="M44.1559 39.3235L31.8811 32.2697L23.4387 54.2087L24.8828 54.3198L30.7147 54.7086L33.5473 62.9843L34.2139 64.9838L37.9907 55.2085L41.7676 69.3717L42.4896 68.1497L45.2667 63.0954L51.1541 69.4827L52.5982 71.0379L44.1559 39.3235Z" fill="white"/>
<path d="M52.5982 71.5384C52.4871 71.5384 52.3205 71.4828 52.265 71.3718L45.3778 63.8736L42.2119 69.5389C42.1008 69.7055 41.9342 69.8166 41.712 69.761C41.5454 69.761 41.3788 69.5944 41.3232 69.4278L37.9352 56.7087L34.7137 65.0955C34.6582 65.2621 34.3602 65.4288 34.1381 65.4288C33.9159 65.4288 33.7493 65.3177 33.6937 65.0955L30.437 55.098L23.4387 54.6536C23.2721 54.6536 23.161 54.5426 23.0499 54.4315C22.9944 54.3204 22.9388 54.1538 22.9944 53.9871L31.4368 32.0481C31.4923 31.937 31.6034 31.8259 31.7145 31.7704C31.8255 31.7148 31.9922 31.7148 32.1033 31.8259L44.378 38.9353C44.4891 38.9908 44.5446 39.1019 44.6002 39.213L53.0426 70.9274C53.0981 71.1496 52.987 71.3718 52.8204 71.4828C52.7648 71.5384 52.6538 71.5384 52.5982 71.5384ZM45.2667 62.5961C45.3778 62.5961 45.5444 62.6517 45.5999 62.7628L51.5985 69.3167L43.7115 39.6573L32.1033 32.9367L24.1052 53.765L30.7702 54.2093C30.9369 54.2093 31.159 54.3759 31.2146 54.5426L34.3249 63.5959L37.6019 55.0424C37.6574 54.8758 37.8796 54.7092 38.1018 54.7092C38.3239 54.7092 38.4906 54.8758 38.5461 55.0424L41.9897 68.0392L44.9334 62.8183C44.989 62.7072 45.1556 62.5961 45.3222 62.5961C45.2667 62.5961 45.2667 62.5961 45.2667 62.5961Z" fill="#0000BD"/>
<path d="M44.489 3.333C38.7127 0.000487894 33.5473 -0.332764 29.7704 1.83337L20.9393 6.94323C24.7161 4.77709 29.8815 5.11034 35.6023 8.38732C47.0995 14.9968 56.375 31.104 56.375 44.3229C56.375 50.9324 54.0423 55.5979 50.3209 57.7641L59.1521 52.6542C62.929 50.4881 65.2062 45.8226 65.2062 39.2131C65.2062 25.9941 55.9307 9.94249 44.489 3.333Z" fill="white"/>
<path d="M50.321 58.2079C50.1544 58.2079 49.9878 58.0969 49.8767 57.9858C49.7656 57.7636 49.8211 57.4859 50.0433 57.3193C53.8201 55.1531 55.8752 50.5431 55.8752 44.3225C55.8752 31.2701 46.6552 15.3296 35.3802 8.83117C30.0482 5.72082 24.9383 5.22094 21.217 7.38708C20.9949 7.49816 20.7172 7.44262 20.5505 7.22045C20.4395 6.99828 20.495 6.72057 20.7172 6.55395L29.5483 1.44409C31.2146 0.499877 33.103 0 35.2136 0C38.2129 0 41.3788 0.999754 44.7113 2.88818C56.264 9.55321 65.7061 25.8825 65.7061 39.2126C65.7061 45.7665 63.4844 50.7098 59.3743 53.0425L50.5432 58.1524C50.4876 58.2079 50.3765 58.2079 50.321 58.2079ZM26.3824 5.10986C29.3817 5.10986 32.5476 6.10961 35.8801 7.99804C47.4328 14.6631 56.875 30.9924 56.875 44.3225C56.875 48.7658 55.8197 52.4871 53.9312 55.0976L58.93 52.2094C62.7068 50.0433 64.7619 45.4333 64.7619 39.2126C64.7619 26.1602 55.5419 10.2197 44.2669 3.72131C38.9349 0.610961 33.8251 0.111084 30.1037 2.27722L25.105 5.1654C25.4938 5.10986 25.9381 5.10986 26.3824 5.10986Z" fill="#DF0112"/>
<path d="M56.3751 44.3228C56.3751 50.9323 54.0423 55.5978 50.321 57.764C46.5441 59.9301 41.3788 59.5968 35.6579 56.3199C24.2163 49.7104 14.8853 33.6032 14.8853 20.3843C14.8853 13.7748 17.218 9.10924 20.9393 6.94311C24.6606 4.77697 29.9371 5.11023 35.6579 8.3872C47.0996 14.9967 56.3751 31.1038 56.3751 44.3228Z" fill="white"/>
<path d="M44.9334 59.5962C41.9342 59.5962 38.7683 58.5965 35.4358 56.7081C23.8275 50.043 14.4409 33.7137 14.4409 20.3836C14.4409 13.8297 16.6626 8.88647 20.7727 6.55371C22.439 5.6095 24.3274 5.10962 26.438 5.10962C29.4372 5.10962 32.6031 6.10937 35.9356 7.9978C47.4884 14.6628 56.9305 30.9922 56.9305 44.3222C56.9305 50.8762 54.7088 55.8194 50.5987 58.1522C48.8769 59.1519 46.9885 59.5962 44.9334 59.5962ZM26.3824 6.05383C24.494 6.05383 22.7167 6.49817 21.217 7.38684C17.4402 9.55297 15.3851 14.163 15.3851 20.3836C15.3851 33.436 24.6051 49.3765 35.8801 55.8749C41.2121 58.9853 46.322 59.4852 50.0433 57.319C53.8201 55.1529 55.8752 50.5429 55.8752 44.3222C55.8752 31.2699 46.6552 15.3293 35.3802 8.83093C32.2143 6.99804 29.2151 6.05383 26.3824 6.05383Z" fill="#DF0112"/>
<path d="M53.3203 42.5454C53.3203 53.8204 45.4333 58.3748 35.6579 52.7651C25.8826 47.0998 17.9956 33.4365 17.9956 22.1615C17.9956 10.8865 25.8826 6.33205 35.6579 11.9418C45.4333 17.6071 53.3203 31.2704 53.3203 42.5454Z" fill="white"/>
<path d="M43.5449 55.6526C40.99 55.6526 38.2684 54.8195 35.4358 53.1533C25.5493 47.488 17.4957 33.547 17.4957 22.1609C17.4957 14.2184 21.4947 9.05298 27.771 9.05298C30.3259 9.05298 33.0475 9.88611 35.8801 11.5524C45.7666 17.2176 53.8201 31.1587 53.8201 42.5448C53.8201 50.4873 49.7656 55.6526 43.5449 55.6526ZM27.771 9.99719C22.0502 9.99719 18.4955 14.6627 18.4955 22.1609C18.4955 33.2693 26.3269 46.8215 35.9356 52.3201C38.6572 53.8753 41.2121 54.6529 43.6004 54.6529C49.3212 54.6529 52.8759 49.9874 52.8759 42.5448C52.8759 31.4364 45.0445 17.8841 35.4358 12.33C32.7142 10.8303 30.1593 9.99719 27.771 9.99719Z" fill="#DF0112"/>
<path d="M23.772 32.4367L22.7722 31.8813V17.9958L23.772 18.5513V32.4367Z" fill="#DF0112"/>
<path d="M34.3249 28.6592C34.2139 26.4931 33.103 24.8268 31.4368 23.8271C29.826 22.8829 28.8263 23.2717 28.8263 24.9379C28.8263 26.7708 29.9927 27.7706 31.6589 29.1591C33.9361 31.1586 35.658 32.7138 35.658 35.4909C35.658 38.4901 33.6584 38.4346 31.77 37.3238C29.1595 35.8241 27.6044 33.1581 27.6044 30.1589V30.0478L28.5486 30.6032C28.5486 33.1581 29.826 35.1576 31.8256 36.2685C33.6029 37.3238 34.7137 36.8794 34.7137 35.1021C34.7137 33.2137 33.6029 32.1584 31.2146 29.9922C29.6039 28.6037 27.9376 27.1596 27.9376 24.4936C27.9376 22.1608 29.3262 21.4943 31.5478 22.7718C33.714 24.0492 35.2136 26.3265 35.3247 29.2146L34.3249 28.6592Z" fill="#DF0112"/>
<path d="M48.4881 39.8232C48.4881 44.1555 46.4886 45.8773 43.5449 44.211C40.6011 42.5448 38.6572 38.4902 38.6572 34.1024C38.6572 29.7701 40.6567 27.9928 43.5449 29.659C46.4886 31.3808 48.4881 35.4909 48.4881 39.8232ZM39.7125 34.6578C39.7125 38.3791 41.2676 41.7116 43.6004 43.0446C45.9332 44.3776 47.4883 42.878 47.4883 39.2122C47.4883 35.5465 45.9332 32.214 43.6004 30.8254C41.2676 29.4924 39.7125 31.0476 39.7125 34.6578Z" fill="#DF0112"/>
</svg>

<svg width="86" height="92" fill="none" xmlns="http://www.w3.org/2000/svg"><path d="M71.038 78.314c-18.662 10.775-37.935 10.775-56.653 0C5.055 72.927.39 67.428.39 61.984v4.333c0 5.499 4.665 10.942 13.996 16.33 18.662 10.775 37.936 10.775 56.653 0 9.331-5.388 13.997-10.887 13.997-16.33v-4.332c.055 5.443-4.666 10.942-13.997 16.33z" fill="#fff"/><path d="M42.767 91.2c-9.553 0-19.162-2.722-28.548-8.165C4.777 77.592 0 71.927 0 66.262v-4.333c0-.278.222-.5.5-.5s.5.222.5.5c0 5.277 4.61 10.664 13.774 15.94 18.44 10.665 37.713 10.665 56.153 0 9.109-5.276 13.774-10.608 13.774-15.94 0-.278.223-.5.5-.5.278 0 .5.222.5.5v4.332c0 5.666-4.776 11.331-14.274 16.774-9.498 5.443-19.107 8.165-28.66 8.165zM.89 66.317c.055 5.277 4.665 10.609 13.774 15.885 18.44 10.664 37.713 10.664 56.153 0 9.109-5.276 13.719-10.608 13.774-15.885-1.833 4.166-6.276 8.331-13.274 12.386-18.718 10.83-38.38 10.83-57.097 0C7.165 74.648 2.722 70.538.889 66.317z" fill="#0000BD"/><path d="M71.038 45.6c-18.662-10.776-37.935-10.776-56.653 0C5.11 50.986.445 56.486.445 61.983c0 5.5 4.665 10.942 13.996 16.33 18.662 10.775 37.935 10.775 56.653 0 9.33-5.388 13.996-10.886 13.996-16.33 0-5.498-4.72-10.997-14.052-16.385z" fill="#fff"/><path d="M42.767 86.867c-9.553 0-19.162-2.721-28.548-8.164C4.777 73.26 0 67.594 0 61.929c0-5.665 4.777-11.33 14.219-16.774 18.717-10.83 38.38-10.83 57.097 0C80.758 50.6 85.59 56.264 85.59 61.93c0 5.665-4.776 11.33-14.274 16.774-9.387 5.443-18.995 8.164-28.549 8.164zm0-48.877c-9.386 0-18.828 2.722-28.048 7.998C5.554 51.322.889 56.654.889 61.986c0 5.276 4.61 10.664 13.774 15.94 18.44 10.664 37.713 10.664 56.153 0 9.109-5.276 13.774-10.608 13.774-15.94 0-5.277-4.61-10.664-13.774-15.941-9.22-5.332-18.662-8.054-28.049-8.054z" fill="#0000BD"/><path d="M39.768 61.818l-5.554 3.166 3.777-9.775 5.554-3.166-3.777 9.775z" fill="#fff"/><path d="M34.214 65.484c-.111 0-.222-.055-.333-.111-.167-.111-.223-.333-.111-.556l3.776-9.775a.434.434 0 01.223-.222l5.554-3.221c.166-.112.389-.056.555.055.167.111.222.333.111.555l-3.777 9.776a.434.434 0 01-.222.222l-5.554 3.221c-.056.056-.111.056-.222.056zm4.166-9.942l-3.222 8.387 4.221-2.444 3.222-8.331-4.221 2.388z" fill="#0000BD"/><path d="M45.267 63.096L42.49 68.15l-.723 1.222 5.555-3.222.722-1.221 2.777-5.055-5.554 3.222z" fill="#fff"/><path d="M41.767 69.816c-.11 0-.222-.055-.333-.11a.427.427 0 01-.055-.556l3.499-6.277.166-.166 5.555-3.221c.166-.112.444-.056.555.055a.427.427 0 01.056.555l-3.5 6.277-.166.166-5.554 3.222c-.056.055-.111.055-.223.055zm3.889-6.387l-2.611 4.61 3.944-2.277 2.61-4.61-3.943 2.277z" fill="#0000BD"/><path d="M58.152 67.872l-5.554 3.166-8.442-31.714 5.554-3.222 8.442 31.77z" fill="#fff"/><path d="M52.598 71.537c-.055 0-.11 0-.166-.055a.569.569 0 01-.278-.333l-8.498-31.715a.528.528 0 01.222-.555l5.554-3.222c.111-.055.278-.11.445 0a.568.568 0 01.277.334l8.443 31.714a.528.528 0 01-.223.555l-5.554 3.222c-.055.055-.166.055-.222.055zm-7.887-31.992l8.22 30.77 4.666-2.721-8.22-30.715-4.666 2.666z" fill="#0000BD"/><path d="M44.156 39.324L31.88 32.27l-8.44 21.939 1.444.11 5.832.39 2.832 8.275.667 2 3.777-9.775 3.777 14.163.722-1.222 2.777-5.055 5.887 6.388 1.444 1.555-8.442-31.714z" fill="#fff"/><path d="M52.598 71.538c-.11 0-.277-.055-.333-.166l-6.887-7.498-3.166 5.665c-.111.166-.278.278-.5.222-.167 0-.333-.167-.389-.333l-3.388-12.72-3.221 8.388c-.056.166-.354.333-.576.333-.222 0-.389-.111-.444-.334l-3.257-9.997-6.998-.444c-.167 0-.278-.111-.39-.223-.055-.11-.11-.277-.055-.444l8.443-21.939a.669.669 0 01.277-.278.342.342 0 01.39.056l12.274 7.11c.111.055.167.166.222.277l8.443 31.714a.528.528 0 01-.223.556c-.055.055-.166.055-.222.055zm-7.331-8.942c.11 0 .277.056.333.167l5.998 6.554-7.886-29.66-11.609-6.72-7.998 20.828 6.665.444c.167 0 .389.167.445.334l3.11 9.053 3.277-8.554c.055-.166.278-.333.5-.333.222 0 .389.167.444.333L41.99 68.04l2.943-5.22a.468.468 0 01.39-.223h-.056z" fill="#0000BD"/><path d="M44.489 3.333C38.713 0 33.547-.333 29.77 1.833l-8.83 5.11c3.776-2.166 8.941-1.833 14.662 1.444 11.498 6.61 20.773 22.717 20.773 35.936 0 6.61-2.333 11.275-6.054 13.441l8.831-5.11c3.777-2.166 6.054-6.831 6.054-13.44 0-13.22-9.275-29.272-20.717-35.881z" fill="#fff"/><path d="M50.321 58.208c-.167 0-.333-.111-.444-.222a.53.53 0 01.166-.667c3.777-2.166 5.832-6.776 5.832-12.997 0-13.052-9.22-28.992-20.495-35.49C30.048 5.72 24.938 5.22 21.217 7.386a.53.53 0 01-.666-.167.53.53 0 01.166-.666l8.831-5.11C31.215.5 33.103 0 35.214 0c2.999 0 6.165 1 9.497 2.888 11.553 6.665 20.995 22.995 20.995 36.325 0 6.553-2.222 11.497-6.332 13.83l-8.83 5.11c-.056.055-.167.055-.223.055zM26.382 5.11c3 0 6.166 1 9.498 2.888 11.553 6.665 20.995 22.994 20.995 36.325 0 4.443-1.055 8.164-2.944 10.775l4.999-2.889c3.777-2.166 5.832-6.776 5.832-12.996 0-13.053-9.22-28.993-20.495-35.492C38.935.611 33.825.111 30.104 2.277l-4.999 2.888c.389-.055.833-.055 1.277-.055z" fill="#DF0112"/><path d="M56.375 44.323c0 6.61-2.333 11.275-6.054 13.441-3.777 2.166-8.942 1.833-14.663-1.444-11.442-6.61-20.773-22.717-20.773-35.936 0-6.61 2.333-11.275 6.054-13.44 3.722-2.167 8.998-1.834 14.719 1.443 11.442 6.61 20.717 22.717 20.717 35.936z" fill="#fff"/><path d="M44.933 59.596c-2.999 0-6.165-1-9.497-2.888C23.828 50.043 14.44 33.714 14.44 20.384c0-6.554 2.222-11.498 6.332-13.83 1.666-.945 3.554-1.444 5.665-1.444 3 0 6.165 1 9.498 2.888C47.488 14.663 56.93 30.992 56.93 44.322c0 6.554-2.222 11.497-6.332 13.83-1.722 1-3.61 1.444-5.666 1.444zM26.383 6.054c-1.889 0-3.666.444-5.166 1.333-3.777 2.166-5.832 6.776-5.832 12.997 0 13.052 9.22 28.992 20.495 35.49 5.332 3.111 10.442 3.611 14.163 1.445 3.777-2.166 5.832-6.776 5.832-12.997 0-13.052-9.22-28.993-20.495-35.491-3.166-1.833-6.165-2.777-8.998-2.777z" fill="#DF0112"/><path d="M53.32 42.545c0 11.275-7.887 15.83-17.662 10.22-9.775-5.665-17.662-19.328-17.662-30.604 0-11.275 7.887-15.829 17.662-10.22 9.775 5.666 17.662 19.33 17.662 30.604z" fill="#fff"/><path d="M43.545 55.653c-2.555 0-5.277-.834-8.11-2.5-9.886-5.665-17.94-19.606-17.94-30.992 0-7.943 4-13.108 10.276-13.108 2.555 0 5.276.833 8.11 2.5 9.886 5.665 17.94 19.606 17.94 30.992 0 7.942-4.055 13.108-10.276 13.108zM27.77 9.997c-5.72 0-9.276 4.666-9.276 12.164 0 11.108 7.832 24.66 17.44 30.16 2.722 1.554 5.277 2.332 7.665 2.332 5.721 0 9.276-4.666 9.276-12.108 0-11.109-7.831-24.66-17.44-30.215-2.722-1.5-5.277-2.333-7.665-2.333z" fill="#DF0112"/><path d="M23.772 32.437l-1-.556V17.996l1 .555v13.886zm10.553-3.777c-.111-2.167-1.222-3.833-2.888-4.833-1.611-.944-2.61-.555-2.61 1.11 0 1.834 1.166 2.834 2.832 4.222 2.277 2 3.999 3.555 3.999 6.332 0 3-2 2.944-3.888 1.833-2.61-1.5-4.166-4.166-4.166-7.165v-.111l.945.555c0 2.555 1.277 4.555 3.277 5.666 1.777 1.055 2.888.61 2.888-1.167 0-1.888-1.111-2.944-3.5-5.11-1.61-1.388-3.276-2.832-3.276-5.498 0-2.333 1.388-3 3.61-1.722 2.166 1.277 3.666 3.555 3.777 6.443l-1-.556zm14.163 11.163c0 4.333-2 6.054-4.943 4.388-2.944-1.666-4.888-5.72-4.888-10.109 0-4.332 2-6.11 4.888-4.443 2.944 1.722 4.943 5.832 4.943 10.164zm-8.776-5.165c0 3.721 1.556 7.054 3.888 8.387 2.333 1.333 3.888-.167 3.888-3.833 0-3.666-1.555-6.998-3.888-8.387-2.332-1.333-3.888.223-3.888 3.833z" fill="#DF0112"/></svg>
